printrun/assets/toolbar/fit_w.svg

<?xml version="1.0" encoding="UTF-8"?>
<svg id="icon" xmlns="http://www.w3.org/2000/svg" width="128" height="128" viewBox="0 0 128 128">
  <path d="M101.564,17c5.203,0,9.436,4.233,9.436,9.436v75.128c0,5.203-4.233,9.436-9.436,9.436H26.436c-5.203,0-9.436-4.233-9.436-9.436V26.436c0-5.203,4.233-9.436,9.436-9.436h75.128M101.564,8H26.436c-10.182,0-18.436,8.254-18.436,18.436v75.128c0,10.182,8.254,18.436,18.436,18.436h75.128c10.182,0,18.436-8.254,18.436-18.436V26.436c0-10.182-8.254-18.436-18.436-18.436h0Z" style="fill: #dfe2e5;"/>
  <path d="M64,97.5h-21.5c-6.617,0-12-5.383-12-12v-21.5c0-2.485,2.015-4.5,4.5-4.5s4.5,2.015,4.5,4.5v21.5c0,1.654,1.346,3,3,3h21.5c2.485,0,4.5,2.015,4.5,4.5s-2.015,4.5-4.5,4.5Z" style="fill: #dfe2e5;"/>
  <path d="M93,68.5c-2.485,0-4.5-2.015-4.5-4.5v-21.5c0-1.654-1.346-3-3-3h-21.5c-2.485,0-4.5-2.015-4.5-4.5s2.015-4.5,4.5-4.5h21.5c6.617,0,12,5.383,12,12v21.5c0,2.485-2.015,4.5-4.5,4.5Z" style="fill: #dfe2e5;"/>
</svg>

<?xml version="1.0" encoding="UTF-8" standalone="no"?>
<!DOCTYPE svg PUBLIC "-//W3C//DTD SVG 1.1//EN" "http://www.w3.org/Graphics/SVG/1.1/DTD/svg11.dtd">
<svg width="100%" height="100%" viewBox="0 0 128 128" version="1.1" xmlns="http://www.w3.org/2000/svg" xmlns:xlink="http://www.w3.org/1999/xlink" xml:space="preserve" xmlns:serif="http://www.serif.com/" style="fill-rule:evenodd;clip-rule:evenodd;stroke-linejoin:round;stroke-miterlimit:2;">
    <path d="M101.56,17C106.76,17 111,21.23 111,26.44L111,101.57C111,106.77 106.77,111.01 101.56,111.01L26.44,111.01C21.24,111.01 17,106.78 17,101.57L17,26.44C17,21.24 21.23,17 26.44,17L101.57,17M101.57,8L26.44,8C16.26,8 8,16.25 8,26.44L8,101.57C8,111.75 16.25,120.01 26.44,120.01L101.57,120.01C111.75,120.01 120.01,111.76 120.01,101.57L120.01,26.44C120.01,16.26 111.76,8 101.57,8Z" style="fill:white;fill-rule:nonzero;"/>
    <path d="M64,88.5C66.484,88.5 68.5,90.516 68.5,93C68.5,95.484 66.484,97.5 64,97.5L42.5,97.5C35.876,97.5 30.5,92.124 30.5,85.5L30.5,64C30.5,61.516 32.516,59.5 35,59.5C37.484,59.5 39.5,61.516 39.5,64L39.5,85.5C39.5,87.156 40.844,88.5 42.5,88.5L64,88.5Z" style="fill:white;"/>
    <path d="M64,39.5C61.516,39.5 59.5,37.484 59.5,35C59.5,32.516 61.516,30.5 64,30.5L85.5,30.5C92.124,30.5 97.5,35.876 97.5,42.5L97.5,64C97.5,66.484 95.484,68.5 93,68.5C90.516,68.5 88.5,66.484 88.5,64L88.5,42.5C88.5,40.844 87.156,39.5 85.5,39.5L64,39.5Z" style="fill:white;"/>
</svg>
